docs/assets/img/details/overview/business-and-trade.svg

<?xml version="1.0" encoding="UTF-8"?>
<svg width="40px" height="40px" viewBox="0 0 40 40" version="1.1" xmlns="http://www.w3.org/2000/svg" xmlns:xlink="http://www.w3.org/1999/xlink">
    <title>business-and-trade</title>
    <g id="Welcome" stroke="none" stroke-width="1" fill="none" fill-rule="evenodd">
        <g id="lpw-featured-development-detailed-page-1.0" transform="translate(-595.000000, -1115.000000)" fill="#000000" fill-rule="nonzero">
            <g id="business-and-trade" transform="translate(595.000000, 1115.000000)">
                <path d="M23.3333333,15.0035363 L38.0166667,17.9373936 C39.2,18.1888671 40,19.194761 40,20.3850688 L40,37.4852652 C40,38.8767518 38.8833333,40 37.5,40 L22.5,40 C22.9666667,40 23.3333333,39.6311722 23.3333333,39.1617551 L23.3333333,38.3235102 L37.5,38.3235102 C37.95,38.3235102 38.3333333,37.9546824 38.3333333,37.4852652 L38.3333333,20.3850688 C38.3333333,19.9994761 38.0666667,19.6474132 37.6833333,19.5635887 L23.3333333,16.713556 L23.3333333,15.0035363 Z" id="Path"></path>
                <path d="M32.5,23.2351015 C32.9666667,23.2351015 33.3333333,23.6039293 33.3333333,24.0733464 C33.3333333,24.5427636 32.9666667,24.9115914 32.5,24.9115914 L29.1666667,24.9115914 C28.7,24.9115914 28.3333333,24.5427636 28.3333333,24.0733464 C28.3333333,23.6039293 28.7,23.2351015 29.1666667,23.2351015 L32.5,23.2351015 Z" id="Path"></path>
                <path d="M32.5,28.2645711 C32.9666667,28.2645711 33.3333333,28.6333988 33.3333333,29.102816 C33.3333333,29.5722331 32.9666667,29.9410609 32.5,29.9410609 L29.1666667,29.9410609 C28.7,29.9410609 28.3333333,29.5722331 28.3333333,29.102816 C28.3333333,28.6333988 28.7,28.2645711 29.1666667,28.2645711 L32.5,28.2645711 Z" id="Path"></path>
                <path d="M32.5,33.2940406 C32.9666667,33.2940406 33.3333333,33.6628684 33.3333333,34.1322855 C33.3333333,34.6017027 32.9666667,34.9705305 32.5,34.9705305 L29.1666667,34.9705305 C28.7,34.9705305 28.3333333,34.6017027 28.3333333,34.1322855 C28.3333333,33.6628684 28.7,33.2940406 29.1666667,33.2940406 L32.5,33.2940406 Z" id="Path"></path>
                <path d="M23.3333333,39.1617551 C23.3333333,39.6311722 22.9666667,40 22.5,40 C22.0333333,40 21.6666667,39.6311722 21.6666667,39.1617551 L21.6666667,38.3235102 L21.6666667,15.6908972 C21.6666667,15.4394237 21.7833333,15.2047151 21.9666667,15.0370661 C22.1666667,14.8861821 22.4166667,14.8191225 22.6666667,14.8694172 L23.3333333,15.0035363 L23.3333333,16.713556 L23.3333333,38.3235102 L23.3333333,39.1617551 Z" id="Path"></path>
                <path d="M21.6666667,38.3235102 L21.6666667,39.1617551 C21.6666667,39.6311722 22.0333333,40 22.5,40 L15.8333333,40 C16.3,40 16.6666667,39.6311722 16.6666667,39.1617551 L16.6666667,38.3235102 L21.6666667,38.3235102 Z" id="Path"></path>
                <path d="M17.5,8.14669286 C17.9666667,8.14669286 18.3333333,8.51552063 18.3333333,8.98493779 C18.3333333,9.45435494 17.9666667,9.82318271 17.5,9.82318271 L14.1666667,9.82318271 C13.7,9.82318271 13.3333333,9.45435494 13.3333333,8.98493779 C13.3333333,8.51552063 13.7,8.14669286 14.1666667,8.14669286 L17.5,8.14669286 Z" id="Path"></path>
                <path d="M18.3333333,14.0144073 C18.3333333,14.4838245 17.9666667,14.8526523 17.5,14.8526523 L14.1666667,14.8526523 C13.7,14.8526523 13.3333333,14.4838245 13.3333333,14.0144073 C13.3333333,13.5449902 13.7,13.1761624 14.1666667,13.1761624 L17.5,13.1761624 C17.9666667,13.1761624 18.3333333,13.5449902 18.3333333,14.0144073 Z" id="Path"></path>
                <path d="M17.5,18.205632 C17.9666667,18.205632 18.3333333,18.5744597 18.3333333,19.0438769 C18.3333333,19.513294 17.9666667,19.8821218 17.5,19.8821218 L14.1666667,19.8821218 C13.7,19.8821218 13.3333333,19.513294 13.3333333,19.0438769 C13.3333333,18.5744597 13.7,18.205632 14.1666667,18.205632 L17.5,18.205632 Z" id="Path"></path>
                <path d="M17.5,23.2351015 C17.9666667,23.2351015 18.3333333,23.6039293 18.3333333,24.0733464 C18.3333333,24.5427636 17.9666667,24.9115914 17.5,24.9115914 L14.1666667,24.9115914 C13.7,24.9115914 13.3333333,24.5427636 13.3333333,24.0733464 C13.3333333,23.6039293 13.7,23.2351015 14.1666667,23.2351015 L17.5,23.2351015 Z" id="Path"></path>
                <path d="M10,24.0733464 C10,24.5427636 9.63333333,24.9115914 9.16666667,24.9115914 L5.83333333,24.9115914 C5.36666667,24.9115914 5,24.5427636 5,24.0733464 C5,23.6039293 5.36666667,23.2351015 5.83333333,23.2351015 L9.16666667,23.2351015 C9.63333333,23.2351015 10,23.6039293 10,24.0733464 Z" id="Path"></path>
                <path d="M9.16666667,8.14669286 C9.63333333,8.14669286 10,8.51552063 10,8.98493779 C10,9.45435494 9.63333333,9.82318271 9.16666667,9.82318271 L5.83333333,9.82318271 C5.36666667,9.82318271 5,9.45435494 5,8.98493779 C5,8.51552063 5.36666667,8.14669286 5.83333333,8.14669286 L9.16666667,8.14669286 Z" id="Path"></path>
                <path d="M9.16666667,13.1761624 C9.63333333,13.1761624 10,13.5449902 10,14.0144073 C10,14.4838245 9.63333333,14.8526523 9.16666667,14.8526523 L5.83333333,14.8526523 C5.36666667,14.8526523 5,14.4838245 5,14.0144073 C5,13.5449902 5.36666667,13.1761624 5.83333333,13.1761624 L9.16666667,13.1761624 Z" id="Path"></path>
                <path d="M9.16666667,18.205632 C9.63333333,18.205632 10,18.5744597 10,19.0438769 C10,19.513294 9.63333333,19.8821218 9.16666667,19.8821218 L5.83333333,19.8821218 C5.36666667,19.8821218 5,19.513294 5,19.0438769 C5,18.5744597 5.36666667,18.205632 5.83333333,18.205632 L9.16666667,18.205632 Z" id="Path"></path>
                <path d="M15,30.7793058 C15,30.3098887 14.6166667,29.9410609 14.1666667,29.9410609 L9.16666667,29.9410609 C8.7,29.9410609 8.33333333,30.3098887 8.33333333,30.7793058 L8.33333333,38.3235102 L6.66666667,38.3235102 L6.66666667,30.7793058 C6.66666667,29.3878193 7.78333333,28.2645711 9.16666667,28.2645711 L14.1666667,28.2645711 C15.55,28.2645711 16.6666667,29.3878193 16.6666667,30.7793058 L16.6666667,38.3235102 L15,38.3235102 L15,30.7793058 Z" id="Path"></path>
                <path d="M8.33333333,38.3235102 L15,38.3235102 L16.6666667,38.3235102 L16.6666667,39.1617551 C16.6666667,39.6311722 16.3,40 15.8333333,40 L7.5,40 C7.03333333,40 6.66666667,39.6311722 6.66666667,39.1617551 L6.66666667,38.3235102 L8.33333333,38.3235102 Z" id="Path"></path>
                <path d="M2.91666667,0.0995415848 L21.2333333,2.89927963 C22.45,3.10045842 23.3333333,4.13988212 23.3333333,5.38048461 L23.3333333,15.0035363 L22.6666667,14.8694172 C22.4166667,14.8191225 22.1666667,14.8861821 21.9666667,15.0370661 C21.7833333,15.2047151 21.6666667,15.4394237 21.6666667,15.6908972 L21.6666667,5.38048461 C21.6666667,4.96136215 21.3666667,4.60929928 20.9666667,4.54223969 L2.65,1.75926654 C2.6,1.74250164 2.55,1.74250164 2.5,1.74250164 C2.3,1.74250164 2.11666667,1.80956123 1.96666667,1.94368042 C1.76666667,2.1113294 1.66666667,2.32927308 1.66666667,2.58074656 L1.66666667,37.4852652 C1.66666667,37.9546824 2.05,38.3235102 2.5,38.3235102 L6.66666667,38.3235102 L6.66666667,39.1617551 C6.66666667,39.6311722 7.03333333,40 7.5,40 L2.5,40 C1.11666667,40 0,38.8767518 0,37.4852652 L0,2.58074656 C0,1.84309103 0.316666667,1.13896529 0.883333333,0.669548134 C1.45,0.183366077 2.18333333,-0.0178127046 2.91666667,0.0995415848 Z" id="Path"></path>
            </g>
        </g>
    </g>
</svg>

<svg width="40" height="40" xmlns="http://www.w3.org/2000/svg"><path d="M23.333 15.004l14.684 2.933A2.473 2.473 0 0140 20.385v17.1A2.504 2.504 0 0137.5 40h-15a.828.828 0 00.833-.838v-.838H37.5c.45 0 .833-.37.833-.839v-17.1a.841.841 0 00-.65-.821l-14.35-2.85v-1.71z"/><path d="M32.5 23.235c.467 0 .833.369.833.838 0 .47-.366.839-.833.839h-3.333a.828.828 0 01-.834-.839c0-.47.367-.838.834-.838H32.5zm0 5.03c.467 0 .833.368.833.838s-.366.838-.833.838h-3.333a.828.828 0 01-.834-.838c0-.47.367-.838.834-.838H32.5zm0 5.029c.467 0 .833.369.833.838 0 .47-.366.839-.833.839h-3.333a.828.828 0 01-.834-.839c0-.47.367-.838.834-.838H32.5zm-9.167 5.868c0 .47-.366.838-.833.838a.828.828 0 01-.833-.838V15.69c0-.252.116-.486.3-.654.2-.15.45-.218.7-.168l.666.135v24.158z"/><path d="M21.667 38.324v.838c0 .47.366.838.833.838h-6.667a.828.828 0 00.834-.838v-.838h5zM17.5 8.147c.467 0 .833.369.833.838 0 .47-.366.838-.833.838h-3.333a.828.828 0 01-.834-.838c0-.47.367-.838.834-.838H17.5zm.833 5.867c0 .47-.366.839-.833.839h-3.333a.828.828 0 01-.834-.839c0-.469.367-.838.834-.838H17.5c.467 0 .833.369.833.838zm-.833 4.192c.467 0 .833.368.833.838s-.366.838-.833.838h-3.333a.828.828 0 01-.834-.838c0-.47.367-.838.834-.838H17.5zm0 5.029c.467 0 .833.369.833.838 0 .47-.366.839-.833.839h-3.333a.828.828 0 01-.834-.839c0-.47.367-.838.834-.838H17.5zm-7.5.838c0 .47-.367.839-.833.839H5.833A.828.828 0 015 24.073c0-.47.367-.838.833-.838h3.334c.466 0 .833.369.833.838zM9.167 8.147c.466 0 .833.369.833.838 0 .47-.367.838-.833.838H5.833A.828.828 0 015 8.985c0-.47.367-.838.833-.838h3.334zm0 5.029c.466 0 .833.369.833.838 0 .47-.367.839-.833.839H5.833A.828.828 0 015 14.014c0-.469.367-.838.833-.838h3.334zm0 5.03c.466 0 .833.368.833.838s-.367.838-.833.838H5.833A.828.828 0 015 19.044c0-.47.367-.838.833-.838h3.334z"/><path d="M15 30.78a.838.838 0 00-.833-.839h-5a.828.828 0 00-.834.838v7.545H6.667v-7.545a2.504 2.504 0 012.5-2.514h5c1.383 0 2.5 1.123 2.5 2.514v7.545H15v-7.545z"/><path d="M8.333 38.324h8.334v.838c0 .47-.367.838-.834.838H7.5a.828.828 0 01-.833-.838v-.838h1.666z"/><path d="M2.917.1l18.316 2.8a2.501 2.501 0 012.1 2.48v9.624l-.666-.135a.872.872 0 00-.7.168.893.893 0 00-.3.654V5.38c0-.42-.3-.772-.7-.839L2.65 1.76c-.05-.016-.1-.016-.15-.016-.2 0-.383.067-.533.2-.2.168-.3.386-.3.638v34.904c0 .47.383.839.833.839h4.167v.838c0 .47.366.838.833.838h-5A2.504 2.504 0 010 37.485V2.581C0 1.843.317 1.139.883.67A2.491 2.491 0 012.917.1z"/></svg>
